X:0543
T:"Devil Take The Wars!"   (air)   0543
C:after Chief F. O'Neill
C:animated
N:>>>>>>>>>>>>>>differs from book!<<<<<<<<<<<<<<<<<<<
Q:1/4=110
I:abc2nwc
B:O'Neill's Music Of Ireland (The 1850) Lyon & Healy, Chicago, 1903 edition
Z:FROM O'NEILL'S TO NOTEWORTHY, FROM NOTEWORTHY TO ABC, MIDI AND .TXT BY VINCE BRENNAN June 2003 (HTTP://WWW.SOSYOURMOM.COM)
M:C
L:1/8
K:D
"_vb"d2(d3/2f/2) (fe)(dc)|(dA) (Bc/2d/2) (BA).G.F|FAAd d3e|(fg/2a/2) gf (f2e) z|d2(d3/2f/2) (fedc)|
(dA B)(c/2d/2) (BAGF)|(FA)(Ad) (df)(a3/2g/2)|f2TRe ({dge}d2z||
d|.f.d.f.a .f.d zd|.e.c.e.a ec ze|f2fd e2e3/2c/2|d3/2e/2 (f/2e/2d/2c/2) B3c|A3/2B/2AF A3d|
A3/2B/2AF A2d3/2c/2|(Be)ef e3f|(gf)(ed) (dc)(BA)|A3/2B/2AF A2a3/2g/2|f2TRe2 {dge}d2z|]
